X: 43166
T: Winter Solstice
R: reel
M: 4/4
K: Bminor
|:B2Bc d2de|f~B3 gfed|c~A3 EAcA|dBcA BAFA|
B2FA Bcde|f~B3 ABde|fdgf edcA|1 FEdc B3F:|2 FEdc B3c||
|:d2de faab|afec fecd|BFBc dFde|~f2ef decd|
B~F3 B2de|cede fefa|bfae fecd|1 BFdc B3c:|2 BFdc B3F||

